X:1
T:Title
%%score { ( 1 3 ) | ( 2 4 ) }
L:1/8
Q:1/4=100
M:4/4
K:A
V:1 treble nm="Grand Piano"
V:3 treble 
V:2 bass 
V:4 bass 
V:1
 [CE]2 [A,C][CE] [CA]2 [CE][CA] | [Ec]2 [DB][CA] [DB] [CA]3 | [DF]2 [FA]>[DF] [CE]2 [EA]B | z4 B4 | %4
w: William~J.~Kirkpatrick * * * * *||||
 [CE]2 [A,C][CE] [CA]2 [CE][CA] | [Ec]2 [DB][CA] [DB] [CA]3 | [DF]2 [FA]>[DF] [CE]2 [EA][FB] | %7
w: |||
 c2 c>B [CA]4 | B2 B>B B2 [^Ec]>[EB] | [FA]2 [DF]2 [DF] [CE]3 | B2 BB B2 [EA]B | c2 BA B4 | %12
w: |||||
 [Ec]2 [Ec]>[Ec] [Ec]2 [EB][EA] | [FB]2 [FA]2 [DF] [FA]3 | EE z2 AA z2 | c2 c>B [CA]4 |] %16
w: ||||
V:2
 [A,,A,]2 [A,,E,][A,,E,] [A,,E,]2 [A,,A,][A,,A,] | [A,,A,]2 [A,,E,][A,,E,] [A,,E,] [A,,A,]3 | %2
 [D,A,]2 [D,A,]>[D,A,] [A,,A,]2 [C,A,][E,G,E] | z4 E2 z2 | %4
 [A,,A,]2 [A,,E,][A,,E,] [A,,E,]2 [A,,A,][A,,A,] | [A,,A,]2 [A,,E,][A,,E,] [A,,E,] [A,,A,]3 | %6
 [D,A,]2 [D,A,]>[D,A,] [A,,A,]2 [C,A,][C,A,] | [E,A,E]2 [E,G,E]>[E,G,D] [A,,A,]4 | %8
 [E,G,E]2 [E,G,E]>[G,E] [E,G,E]2 [C,G,]>[C,G,] | [D,F,]2 [D,A,]2 [A,,A,] [A,,A,]3 | %10
 [E,G,E]2 [E,G,E][E,G,E] [E,G,E]2 [C,A,][E,G,E] | [A,E]2 [G,B,E][F,B,^D] [E,G,E]4 | %12
 [A,,A,]2 [A,,A,]>[A,,A,] [A,,A,]2 [B,,G,][C,A,] | [D,A,]2 [D,A,]2 [D,A,] [D,A,]3 | %14
 [E,A,C][E,A,C] z2 [F,A,C][F,A,C] z2 | [E,A,E]2 [E,A,E]>[E,G,D] [A,,E,A,]4 |] %16
V:3
 x8 | x8 | x8 | c2 BA z2 D2 | x8 | x8 | x8 | x8 | x8 | x8 | x8 | x8 | x8 | x8 | x8 | x8 |] %16
V:4
 x8 | x8 | x8 | [A,E]2 [G,B,E][F,B,^D] [E,G,]4 | x8 | x8 | x8 | x8 | x8 | x8 | x8 | x8 | x8 | x8 | %14
 x8 | x8 |] %16

